src/pos-icons/close-circle-multiple.svg

<svg height="24" viewBox="0 0 24 24" width="24" xmlns="http://www.w3.org/2000/svg"><path d="m2 12c0-2.79 1.64-5.2 4-6.32v-2.18c-3.5 1.26-6 4.59-6 8.5s2.5 7.24 6 8.5v-2.18c-2.36-1.12-4-3.53-4-6.32m13-9c-4.96 0-9 4.04-9 9s4.04 9 9 9 9-4.04 9-9-4.04-9-9-9m5 12.59-1.41 1.41-3.59-3.59-3.59 3.59-1.41-1.41 3.59-3.59-3.59-3.59 1.41-1.41 3.59 3.59 3.59-3.59 1.41 1.41-3.59 3.59z"/></svg>

<?xml version="1.0" encoding="UTF-8"?><!DOCTYPE svg PUBLIC "-//W3C//DTD SVG 1.1//EN" "http://www.w3.org/Graphics/SVG/1.1/DTD/svg11.dtd"><svg xmlns="http://www.w3.org/2000/svg" xmlns:xlink="http://www.w3.org/1999/xlink" version="1.1" id="mdi-close-circle-multiple" width="24" height="24" viewBox="0 0 24 24"><path d="M2 12C2 9.21 3.64 6.8 6 5.68V3.5C2.5 4.76 0 8.09 0 12S2.5 19.24 6 20.5V18.32C3.64 17.2 2 14.79 2 12M15 3C10.04 3 6 7.04 6 12S10.04 21 15 21 24 16.96 24 12 19.96 3 15 3M20 15.59L18.59 17L15 13.41L11.41 17L10 15.59L13.59 12L10 8.41L11.41 7L15 10.59L18.59 7L20 8.41L16.41 12L20 15.59Z" /></svg>
